X:1
T:LA CARRIERE
C:Michel PLATRE
Z:Creative Commons BY-NC-SA
L:1/8
M:2/4
K:C
V:1 treble nm="Part_1"
V:1
 c2 B2 | A3 (3d/A/G/ | ABcd | e3 G | c2 B2 | A3 (3d/A/G/ |1 ABcd || B3 G :|2 ABcB || c3 G |: %10
 g>f eg | f>e df | edcd | e3 c | g>f eg | f>e df | ecdB |1 c3 G :|2 c4 || %19

